actions/16/help-info.svg

<?xml version="1.0" encoding="UTF-8" standalone="no"?>
<svg
   xmlns:dc="http://purl.org/dc/elements/1.1/"
   xmlns:cc="http://creativecommons.org/ns#"
   xmlns:rdf="http://www.w3.org/1999/02/22-rdf-syntax-ns#"
   xmlns:svg="http://www.w3.org/2000/svg"
   xmlns="http://www.w3.org/2000/svg"
   xmlns:xlink="http://www.w3.org/1999/xlink"
   version="1.1"
   width="16"
   height="16"
   id="svg4080">
  <defs
     id="defs4082">
    <linearGradient
       x1="71.204407"
       y1="6.2375584"
       x2="71.204407"
       y2="44.340794"
       id="linearGradient3071"
       xlink:href="#linearGradient4011"
       gradientUnits="userSpaceOnUse"
       gradientTransform="matrix(0.35135136,0,0,0.35135136,-17.203671,-0.90930013)" />
    <linearGradient
       id="linearGradient4011">
      <stop
         id="stop4013"
         style="stop-color:#ffffff;stop-opacity:1"
         offset="0" />
      <stop
         id="stop4015"
         style="stop-color:#ffffff;stop-opacity:0.23529412"
         offset="0.507761" />
      <stop
         id="stop4017"
         style="stop-color:#ffffff;stop-opacity:0.15686275"
         offset="0.83456558" />
      <stop
         id="stop4019"
         style="stop-color:#ffffff;stop-opacity:0.39215687"
         offset="1" />
    </linearGradient>
    <linearGradient
       x1="7.8555918"
       y1="15.85593"
       x2="7.8555918"
       y2="-0.12225635"
       id="linearGradient4037"
       xlink:href="#linearGradient3707-319-631-407-324-3-8"
       gradientUnits="userSpaceOnUse"
       gradientTransform="translate(0,0.155436)" />
    <linearGradient
       id="linearGradient3707-319-631-407-324-3-8">
      <stop
         id="stop3760-7-3"
         style="stop-color:#185f9a;stop-opacity:1"
         offset="0" />
      <stop
         id="stop3762-8-4"
         style="stop-color:#599ec9;stop-opacity:1"
         offset="1" />
    </linearGradient>
    <linearGradient
       id="linearGradient2867-449-88-871-390-598-476-591-434-148-57-177-3-8">
      <stop
         id="stop3750-8-9"
         style="stop-color:#90dbec;stop-opacity:1"
         offset="0" />
      <stop
         id="stop3752-3-2"
         style="stop-color:#55c1ec;stop-opacity:1"
         offset="0.26238" />
      <stop
         id="stop3754-7-2"
         style="stop-color:#3689e6;stop-opacity:1"
         offset="0.704952" />
      <stop
         id="stop3756-9-3"
         style="stop-color:#2b63a0;stop-opacity:1"
         offset="1" />
    </linearGradient>
    <radialGradient
       cx="5.7800279"
       cy="8.4497671"
       r="19.99999"
       fx="5.7800279"
       fy="8.4497671"
       id="radialGradient4076"
       xlink:href="#linearGradient2867-449-88-871-390-598-476-591-434-148-57-177-3-8"
       gradientUnits="userSpaceOnUse"
       gradientTransform="matrix(0,0.89892574,-0.95095622,-1.6561642e-8,16.035401,-6.0146846)" />
    <linearGradient
       x1="24"
       y1="44"
       x2="24"
       y2="3.8990016"
       id="linearGradient4078"
       xlink:href="#linearGradient3707-319-631-407-324-3-8"
       gradientUnits="userSpaceOnUse"
       gradientTransform="matrix(0.38465107,0,0,0.38465106,-1.231625,-1.2316257)" />
  </defs>
  <metadata
     id="metadata4085">
    <rdf:RDF>
      <cc:Work
         rdf:about="">
        <dc:format>image/svg+xml</dc:format>
        <dc:type
           rdf:resource="http://purl.org/dc/dcmitype/StillImage" />
        <dc:title />
      </cc:Work>
    </rdf:RDF>
  </metadata>
  <g
     id="layer1">
    <path
       d="m 8.000001,0.49999997 c -4.138241,0 -7.50000103,3.36175853 -7.50000103,7.49999993 C 0.49999997,12.138242 3.86176,15.500001 8.000001,15.5 12.13824,15.5 15.500004,12.138242 15.5,7.9999999 15.5,3.8617585 12.13824,0.49999997 8.000001,0.49999997 z"
       id="path2555-7"
       style="color:#000000;fill:url(#radialGradient4076);fill-opacity:1;fill-rule:nonzero;stroke:url(#linearGradient4078);stroke-width:0.99999994;stroke-linecap:round;stroke-linejoin:round;stroke-miterlimit:4;stroke-opacity:1;stroke-dasharray:none;stroke-dashoffset:0;marker:none;visibility:visible;display:inline;overflow:visible;enable-background:accumulate" />
    <path
       d="M 5.881,6.7590234 C 5.9922148,7.0317866 6.1139609,7.2515996 6.3423828,6.9350072 6.6334636,6.7428038 7.6014441,5.912817 7.5319293,6.6901445 7.2683815,8.1340177 6.9347513,9.5656647 6.693545,11.013046 6.4131739,11.811573 7.1481251,12.493747 7.8661086,11.95272 8.6377432,11.592534 9.2917959,11.030318 9.9621819,10.511713 9.8588483,10.281238 9.7828702,9.9472237 9.5349125,10.264181 9.199684,10.435362 8.4831843,11.207346 8.3205525,10.601219 8.5463253,9.0401833 9.018927,7.526577 9.2980498,5.9757511 9.582789,5.2563367 9.0371262,4.3840813 8.2960005,4.9997117 7.3964707,5.4416432 6.656938,6.1339301 5.881,6.7590234 z M 9.0733724,1.4099736 C 8.1373391,1.3975641 7.7091872,2.9459704 8.6132842,3.3282316 9.3452141,3.598816 10.099767,2.8171969 9.8943379,2.0751207 9.8243779,1.6872131 9.4667439,1.3808628 9.0733733,1.4099736 l -9e-7,0 z"
       id="path3536-3"
       style="font-size:40px;font-style:normal;font-variant:normal;font-weight:bold;font-stretch:normal;text-align:start;line-height:100%;writing-mode:lr-tb;text-anchor:start;fill:url(#linearGradient4037);fill-opacity:1;stroke:none;font-family:URW Palladio L;-inkscape-font-specification:URW Palladio L Bold" />
    <path
       d="M 14.5,7.999769 C 14.5,11.589737 11.589636,14.5 8.0000824,14.5 4.4101993,14.5 1.5,11.589703 1.5,7.999769 1.5,4.4099697 4.4101993,1.5000003 8.0000824,1.5000003 11.589636,1.5000003 14.5,4.4099697 14.5,7.999769 l 0,0 z"
       id="path8655-6"
       style="opacity:0.5;color:#000000;fill:none;stroke:url(#linearGradient3071);stroke-width:0.99999994;stroke-linecap:round;stroke-linejoin:round;stroke-miterlimit:4;stroke-opacity:1;stroke-dasharray:none;stroke-dashoffset:0;marker:none;visibility:visible;display:inline;overflow:visible;enable-background:accumulate" />
    <path
       d="M 5.8808697,7.7593117 C 5.9920845,8.0320749 6.1138306,8.2518879 6.3422525,7.9352955 6.6333333,7.7430921 7.6013138,6.9131053 7.531799,7.6904328 7.2682512,9.134306 6.934621,10.565953 6.6934147,12.013334 6.4130436,12.811861 7.1479948,13.494036 7.8659783,12.953008 8.6376129,12.592822 9.2916656,12.030606 9.9620516,11.512001 9.858718,11.281526 9.7827399,10.947512 9.5347822,11.264469 9.1995537,11.43565 8.483054,12.207634 8.3204222,11.601507 8.546195,10.040472 9.0187967,8.5268653 9.2979195,6.9760394 9.5826587,6.256625 9.0369959,5.3843696 8.2958702,6 7.3963404,6.4419315 6.6568077,7.1342184 5.8808697,7.7593117 z M 9.0732421,2.4102619 C 8.1372088,2.3978524 7.7090569,3.9462587 8.6131539,4.3285199 9.3450838,4.5991043 10.099637,3.8174852 9.8942076,3.075409 9.8242477,2.6875014 9.4666136,2.3811511 9.073243,2.4102619 l -9e-7,0 z"
       id="path3536"
       style="font-size:40px;font-style:normal;font-variant:normal;font-weight:bold;font-stretch:normal;text-align:start;line-height:100%;writing-mode:lr-tb;text-anchor:start;fill:#ffffff;fill-opacity:1;stroke:none;font-family:URW Palladio L;-inkscape-font-specification:URW Palladio L Bold" />
  </g>
</svg>

<svg xmlns="http://www.w3.org/2000/svg" xmlns:xlink="http://www.w3.org/1999/xlink" viewBox="0 0 16 16"><defs><linearGradient x1="71.204" y1="6.238" x2="71.204" y2="44.341" id="g" xlink:href="#a" gradientUnits="userSpaceOnUse" gradientTransform="translate(-17.204 -.91) scale(.35135)"/><linearGradient id="a"><stop offset="0" stop-color="#fff"/><stop offset=".508" stop-color="#fff" stop-opacity=".235"/><stop offset=".835" stop-color="#fff" stop-opacity=".157"/><stop offset="1" stop-color="#fff" stop-opacity=".392"/></linearGradient><linearGradient x1="7.856" y1="15.856" x2="7.856" y2="-.122" id="f" xlink:href="#b" gradientUnits="userSpaceOnUse" gradientTransform="translate(0 .155)"/><linearGradient id="b"><stop offset="0" stop-color="#185f9a"/><stop offset="1" stop-color="#599ec9"/></linearGradient><linearGradient id="c"><stop offset="0" stop-color="#90dbec"/><stop offset=".262" stop-color="#55c1ec"/><stop offset=".705" stop-color="#3689e6"/><stop offset="1" stop-color="#2b63a0"/></linearGradient><radialGradient cx="5.78" cy="8.45" r="20" fx="5.78" fy="8.45" id="d" xlink:href="#c" gradientUnits="userSpaceOnUse" gradientTransform="matrix(0 .89893 -.95096 0 16.035 -6.015)"/><linearGradient x1="24" y1="44" x2="24" y2="3.899" id="e" xlink:href="#b" gradientUnits="userSpaceOnUse" gradientTransform="translate(-1.232 -1.232) scale(.38465)"/></defs><path d="M8 .5A7.505 7.505 0 0 0 .5 8c0 4.138 3.362 7.5 7.5 7.5s7.5-3.362 7.5-7.5S12.138.5 8 .5z" color="#000" fill="url(#d)" stroke="url(#e)" stroke-linecap="round" stroke-linejoin="round" overflow="visible"/><path d="M5.88 6.76c.112.272.234.492.462.175.29-.192 1.26-1.022 1.19-.245-.264 1.444-.597 2.876-.838 4.323-.28.8.454 1.48 1.172.94.772-.36 1.426-.923 2.096-1.44-.103-.232-.18-.566-.427-.25-.335.172-1.052.944-1.214.338.23-1.56.7-3.07.98-4.62.287-.72-.26-1.592-1-.976-.9.443-1.64 1.135-2.415 1.76zm3.193-5.35c-.936-.012-1.364 1.536-.46 1.918.732.27 1.487-.51 1.28-1.253-.07-.388-.426-.694-.82-.665z" style="text-align:start;line-height:100%;-inkscape-font-specification:URW Palladio L Bold" font-size="40" font-weight="700" fill="url(#f)" font-family="URW Palladio L"/><path d="M14.5 8a6.5 6.5 0 1 1-13 0 6.5 6.5 0 0 1 13 0z" opacity=".5" color="#000" fill="none" stroke="url(#g)" stroke-linecap="round" stroke-linejoin="round" overflow="visible"/><path d="M5.88 7.76c.112.272.234.492.462.175.29-.192 1.26-1.022 1.19-.245-.264 1.444-.597 2.876-.84 4.323-.28.8.456 1.48 1.174.94.772-.36 1.426-.922 2.096-1.44-.103-.23-.18-.565-.427-.25-.335.173-1.052.945-1.215.34.226-1.563.7-3.076.978-4.627.285-.72-.26-1.592-1.002-.976-.9.442-1.64 1.134-2.415 1.76zm3.193-5.35c-.936-.012-1.364 1.536-.46 1.92.732.27 1.487-.513 1.28-1.255-.07-.387-.426-.694-.82-.665z" style="text-align:start;line-height:100%;-inkscape-font-specification:URW Palladio L Bold" font-size="40" font-weight="700" fill="#fff" font-family="URW Palladio L"/></svg>
